X:53
M:4/4
L:1/8
Q:1/2=105
K:D
fg | agfe fga2 | F4GFED | F4GFED | C2E4fg | agfe fga2 | F4F2EF | D2A4Bc | d2D4 ||

